X:248
T:Egg Hornpipe. JC.253
T:Fisher’s Hornpipe, aka. JC.253
T:Blanchard’s Hornpipe, aka. JC253
R:Hp
C:by James Arnold Fishar, dir. at Covent Garden during 1770’s.
S:John Clare,Poet,Helpstone (1793-1864)
N:MR. No KS in MS. 1st 2 notes after 1st double bar lines and last 2
N:notes in bar 12 are semi-qu’s in MS.
N:aka Peckhover Walk HP, China Orange HP.CGP.
O:England
A:Northamptonshire
Z:vmp.P. Headford
M:C|
L:1/8
Q:2/4=90
K:D
((3ABc)|\
dAFA GBAG|FDFA GBAG|GEDE GEEG|\
FDD” qu’s in MS”FB2c2|!
dAFA GBAG|FDFA GBAG|FAdf Aceg|fedc d2:|!
|:cd|ecAc efge|fdcd efge|fdcd efge|cBAG A2Bc|!
dAFA BcdB|AFDA GABG|AFDF GEFG|A2″ crots in MS”DA,D2|]

